icons/DiscordBots.svg

<svg xmlns="http://www.w3.org/2000/svg" width="256" height="256" fill="none" viewBox="0 0 256 256"><rect width="256" height="256" fill="#5865F2" rx="60"/><path fill="#98A0F7" fill-rule="evenodd" d="M149.541 226.539C178.626 226.516 207.754 226.692 236.881 226.539L245.105 181.333H10L19.303 226.539C62.7124 226.255 106.151 226.572 149.541 226.539Z" clip-rule="evenodd"/><path fill="#98A0F7" fill-rule="evenodd" d="M215.716 183.071H39.3879V123.93C39.3879 72.0546 78.861 30 127.552 30C176.243 30 215.716 72.0546 215.716 123.93V183.071Z" clip-rule="evenodd"/><path fill="#fff" fill-rule="evenodd" d="M220.883 151.223V65.4102V151.223ZM34.7578 151.223V65.4102Z" clip-rule="evenodd"/><path stroke="#202225" stroke-linecap="round" stroke-linejoin="round" stroke-width="3.37" d="M34.7578 151.223V65.4102M220.883 151.223V65.4102V151.223Z"/><path fill="#fff" fill-rule="evenodd" d="M225.781 118.172H29.8594C26.2539 118.172 23.3281 128.297 23.3281 140.785C23.3281 153.277 26.2539 163.398 29.8594 163.398H225.781C229.387 163.398 232.312 153.277 232.312 140.785C232.312 128.297 229.387 118.172 225.781 118.172Z" clip-rule="evenodd"/><path fill="#fff" fill-rule="evenodd" d="M145.727 111.754C136.949 124.848 118.691 124.848 109.914 111.754C105.781 105.594 99.1133 101.938 92.0039 101.938H72.2539C64.168 101.938 57.6172 108.922 57.6172 117.535V173.254H198.027V117.535C198.027 108.922 191.473 101.938 183.387 101.938H163.637C156.527 101.938 149.859 105.594 145.727 111.754Z" clip-rule="evenodd"/><path fill="#fff" fill-rule="evenodd" d="M137.617 97.4453C137.617 91.6836 133.23 87.0078 127.82 87.0078C122.41 87.0078 118.023 91.6836 118.023 97.4453C118.023 103.207 122.41 107.883 127.82 107.883C133.23 107.883 137.617 103.207 137.617 97.4453Z" clip-rule="evenodd"/><path fill="#000" fill-rule="evenodd" d="M96.8008 140.207C96.8008 133.48 91.6836 128.027 85.3711 128.027C79.0586 128.027 73.9414 133.48 73.9414 140.207C73.9414 146.93 79.0586 152.383 85.3711 152.383C91.6836 152.383 96.8008 146.93 96.8008 140.207ZM181.699 140.207C181.699 133.48 176.582 128.027 170.27 128.027C163.957 128.027 158.84 133.48 158.84 140.207C158.84 146.93 163.957 152.383 170.27 152.383C176.582 152.383 181.699 146.93 181.699 140.207Z" clip-rule="evenodd"/><path fill="#fff" fill-rule="evenodd" d="M202.922 209.551C202.922 206.672 200.73 204.332 198.027 204.332C195.32 204.332 193.129 206.672 193.129 209.551C193.129 212.434 195.32 214.77 198.027 214.77C200.73 214.77 202.922 212.434 202.922 209.551ZM186.598 209.551C186.598 206.672 184.406 204.332 181.699 204.332C178.992 204.332 176.801 206.672 176.801 209.551C176.801 212.434 178.992 214.77 181.699 214.77C184.406 214.77 186.598 212.434 186.598 209.551ZM170.27 209.551C170.27 206.672 168.078 204.332 165.371 204.332C162.668 204.332 160.473 206.672 160.473 209.551C160.473 212.434 162.668 214.77 165.371 214.77C168.078 214.77 170.27 212.434 170.27 209.551Z" clip-rule="evenodd"/></svg>

<svg xmlns="http://www.w3.org/2000/svg" width="256" height="256" fill="none" viewBox="0 0 256 256"><rect width="256" height="256" fill="#5865F2" rx="60"/><path fill="#98A0F7" fill-rule="evenodd" d="M149.54 226.54c29.09-.02 58.21.15 87.34 0l8.22-45.2H10l9.3 45.2c43.41-.28 86.85.03 130.24 0" clip-rule="evenodd"/><path fill="#98A0F7" fill-rule="evenodd" d="M215.72 183.07H39.39v-59.14C39.39 72.05 78.86 30 127.55 30c48.7 0 88.17 42.05 88.17 93.93z" clip-rule="evenodd"/><path fill="#fff" fill-rule="evenodd" d="M220.88 151.22V65.41zm-186.12 0V65.41Z" clip-rule="evenodd"/><path stroke="#202225" stroke-linecap="round" stroke-linejoin="round" stroke-width="3.37" d="M34.76 151.22V65.41m186.12 85.81V65.41z"/><path fill="#fff" fill-rule="evenodd" d="M225.78 118.17H29.86c-3.6 0-6.53 10.13-6.53 22.61 0 12.5 2.92 22.62 6.53 22.62h195.92c3.6 0 6.53-10.12 6.53-22.62 0-12.48-2.92-22.6-6.53-22.6" clip-rule="evenodd"/><path fill="#fff" fill-rule="evenodd" d="M145.73 111.75c-8.78 13.1-27.04 13.1-35.82 0-4.13-6.16-10.8-9.81-17.9-9.81H72.24c-8.08 0-14.63 6.98-14.63 15.6v55.71h140.4v-55.71c0-8.62-6.55-15.6-14.63-15.6h-19.75a21.6 21.6 0 0 0-17.91 9.81" clip-rule="evenodd"/><path fill="#fff" fill-rule="evenodd" d="M137.62 97.45c0-5.77-4.39-10.44-9.8-10.44s-9.8 4.67-9.8 10.44 4.39 10.43 9.8 10.43 9.8-4.67 9.8-10.43" clip-rule="evenodd"/><path fill="#000" fill-rule="evenodd" d="M96.8 140.2c0-6.72-5.12-12.17-11.43-12.17s-11.43 5.45-11.43 12.18 5.12 12.17 11.43 12.17 11.43-5.45 11.43-12.17m84.9 0c0-6.72-5.12-12.17-11.43-12.17s-11.43 5.45-11.43 12.18 5.12 12.17 11.43 12.17 11.43-5.45 11.43-12.17" clip-rule="evenodd"/><path fill="#fff" fill-rule="evenodd" d="M202.92 209.55c0-2.88-2.19-5.22-4.9-5.22-2.7 0-4.9 2.34-4.9 5.22s2.2 5.22 4.9 5.22 4.9-2.34 4.9-5.22m-16.32 0c0-2.88-2.2-5.22-4.9-5.22s-4.9 2.34-4.9 5.22 2.2 5.22 4.9 5.22 4.9-2.34 4.9-5.22m-16.33 0c0-2.88-2.2-5.22-4.9-5.22s-4.9 2.34-4.9 5.22 2.2 5.22 4.9 5.22 4.9-2.34 4.9-5.22" clip-rule="evenodd"/></svg>
